!!!COM: Anon.
!!!OTL: O/ Maria, o/ Maria
!!!OTL: Romanceiro Folclorico do Brasil
!!!CNT: Brasil
!!!OCY: Brasil
!!!ODT: <1971///
!!!PSR: Irmaos Vitale
!!!PSP: Sao Paulo, Brasil
!!!PDT: 1949///
!!!PPE: Rossini Tavares de Lima
!!!PPG: page 9
!! Romance: Juliana E D. Jorge
!! Place: Araras, Sao Paulo, Brasil
**kern
*clefG2
*k[b-e-a-]
*M3/4
*MM100
8g
8g
=
4cc
4g
8e-
8c
=
4g
4f
12a-
12a-
12a-
=
4g
4bn
8ee-
8dd
=
4cc
4g
8g
8g
=
4f
4a-
8cc
8bn
=
4e-
4g
8cc
8bn
=
4d
4f
12g
12a-
12g
=
2c
==
*-
